X: 3520
T: Bidh Eoin
R: strathspey
M: 4/4
K: Adorian
c>BA>G E2D>E|G2G>A B<GG>B|c>BA>G E2D2|(3gfe (3dcB c<AA>B:|
c>Bc>e d2d>e|c>Bc>e d>BG>B|c>Bc>e d2c>d|(3gfe (3dcB c<AA>B:|

